X:3
T:The Blackberry Bush
M:C
L:1/8
C:Donald MacLeod
R:Reel
K:D
[| {gfg}f2 {g}f>e {g}d>B{g}B<{d}A | {g}B<d{gde}d>A {g}B>{d}A{e}A>{d}B | {gfg}f2 {g}f>e {g}d>B{g}B<{d}A | {g}B<e{A}e>f {gef}e2 {g}d>e |
{gfg}f2 {g}f>e {g}d>B{g}B<{d}A | {g}B<d{gde}d>A {g}B>{d}A{e}A>B | {Gdc}d2 {g}e<f {gef}e>d{g}B<{d}A | {g}B>d{G}d>e {Gdc}d2 {g}d>e ||
{g}f>a{g}a>f {gef}e2 {g}d>e | {g}f>d{gef}e>d {g}B>{d}A{e}A>B | {Gdc}d2 {g}e<f {gef}e>d{g}B<{d}A | {g}B<e{A}e>f {gef}e2 {g}d>e |
{g}f>a{g}a>f {gef}e2 {g}d>e | {g}f>d{gef}e>d {g}B>{d}A{e}A>B | {Gdc}d2 {g}e<f {gef}e>d{g}B<{d}A | {g}B>d{G}d>e {Gdc}d2 {g}d>B || 
{g}A>{d}A{e}A>{d}B {g}A>B{g}d>e |  {g}f>d{gef}e>d {g}B>{d}A{e}A>{d}B | {g}A>{d}A{e}A>{d}B {g}A>B{gde}d>A | {g}B<e{A}e>f {g}f>e{g}d>B | 
{g}A>{d}A{e}A>{d}B {g}A>B{g}d>e | {g}f>d{gef}e>d {g}B>{d}A{e}A>B | {Gdc}d2 {g}e<f {gef}e>d{g}B<{d}A | {g}B>d{G}d>e {Gdc}d2 {g}d>e || 
{gfg}f2 {g}f>e {g}f>a{g}a>f {gef}e2 {g}f>d {g}B>{d}A{e}A>{d}B | {g}f>e{g}f>a {g}a>f{g}e>d |  {g}B<e{A}e>f {g}f>e{g}d>e | 
{gfg}f2 {g}f<a {ef}e2 {A}e>f | {Gdc}d2 {gde}d>A {g}B>{d}A{e}A>B | {Gdc}d2 {g}e<f {gef}e>d{g}B<{d}A | {g}B>d{G}d>e {Gdc}d2 |]